X:1
T:Marquis of Granby, The
L:1/8
M:4/4
S:Giles Gibbs manuscript
K:G
D2 | G2D2G2D2 | G>F G>B B>A GG | B>A B>c d2 c>B | A2 A>A A2 D2 |
G2D2G2D2 || G>F G>B B>A GG | B>A B>c d2 c>B | A2 A>A A3D |
A>G A>B A2 DD | A>G A>B c3 c | c>A B>c d2 c>B | A>G A>B G3D |
A>G A>B AADD | A>G A>B c2 z2 | c>A B>c dd c>B | A>G A>B G2 ||
